Papirus-GTK/24x24/apps/wps-office-wpsmain.svg

<svg height="24" width="24" xmlns="http://www.w3.org/2000/svg"><g transform="matrix(.49998284 0 0 .49998284 -.49971288 .50099799)"><path d="m9 9v30l15-14 15 14v-30" fill="none" stroke="#3c8cf8" stroke-linecap="round" stroke-linejoin="round" stroke-width="8"/><path d="m24 29.473l-12.271 11.453a4.0004 4.0004 0 0 1 -6.729-2.924v.998a4.0004 4.0004 0 0 0 6.729 2.924l12.271-11.453 12.271 11.453a4.0004 4.0004 0 0 0 6.729-2.924v-.916a4.0004 4.0004 0 0 1 -6.729 2.842z" fill-rule="evenodd" opacity=".3"/><path d="m8.9395 4.9434a4.0004 4.0004 0 0 0 -3.9395 4.0566v1.002a4.0004 4.0004 0 0 1 3.9395-4.0567 4.0004 4.0004 0 0 1  4.0605 4.0567v-1.002a4.0004 4.0004 0 0 0 -4.0605-4.0566zm30 0a4.0004 4.0004 0 0 0 -3.939 4.0566v1.002a4.0004 4.0004 0 1 1 8 0v-1.002a4.0004 4.0004 0 0 0 -4.061-4.0566zm-15.136 16.063a4.0004 4.0004 0 0 0 -2.532 1.07l-8.271 7.721v1.002l8.271-7.721a4.0004 4.0004 0 0 1 5.458 0l8.271 7.721v-1.002l-8.271-7.721a4.0004 4.0004 0 0 0 -2.926-1.07z" fill="#fff" fill-rule="evenodd" opacity=".2"/></g></svg>

<?xml version="1.0" encoding="UTF-8" standalone="no"?>
<!-- Created with Inkscape (http://www.inkscape.org/) -->

<svg
   xmlns:dc="http://purl.org/dc/elements/1.1/"
   xmlns:cc="http://creativecommons.org/ns#"
   xmlns:rdf="http://www.w3.org/1999/02/22-rdf-syntax-ns#"
   xmlns:svg="http://www.w3.org/2000/svg"
   xmlns="http://www.w3.org/2000/svg"
   xmlns:sodipodi="http://sodipodi.sourceforge.net/DTD/sodipodi-0.dtd"
   xmlns:inkscape="http://www.inkscape.org/namespaces/inkscape"
   id="svg3143"
   height="24"
   width="24"
   version="1.1"
   inkscape:version="0.91 r13725"
   sodipodi:docname="wps-office-wpsmain.svg">
  <defs
     id="defs9" />
  <sodipodi:namedview
     pagecolor="#ffffff"
     bordercolor="#666666"
     borderopacity="1"
     objecttolerance="10"
     gridtolerance="10"
     guidetolerance="10"
     inkscape:pageopacity="0"
     inkscape:pageshadow="2"
     inkscape:window-width="1600"
     inkscape:window-height="845"
     id="namedview7"
     showgrid="false"
     inkscape:zoom="1"
     inkscape:cx="-4.5254237"
     inkscape:cy="-4.2711864"
     inkscape:window-x="0"
     inkscape:window-y="32"
     inkscape:window-maximized="1"
     inkscape:current-layer="svg3143" />
  <metadata
     id="metadata3148">
    <rdf:RDF>
      <cc:Work
         rdf:about="">
        <dc:format>image/svg+xml</dc:format>
        <dc:type
           rdf:resource="http://purl.org/dc/dcmitype/StillImage" />
        <dc:title />
      </cc:Work>
    </rdf:RDF>
  </metadata>
  <g
     id="g4137"
     transform="matrix(0.49998284,0,0,0.49998284,-0.49971288,0.50099799)">
    <path
       d="M 9,9 9,39 24,25 39,39 39,9"
       id="path4202"
       inkscape:connector-curvature="0"
       style="fill:none;stroke:#3c8cf8;stroke-width:8;stroke-linecap:round;stroke-linejoin:round" />
    <path
       style="color:#000000;text-indent:0;text-decoration:none;text-decoration-line:none;text-decoration-style:solid;text-decoration-color:#000000;text-transform:none;block-progression:tb;white-space:normal;opacity:0.3;isolation:auto;mix-blend-mode:normal;solid-color:#000000;fill-rule:evenodd;color-rendering:auto;image-rendering:auto;shape-rendering:auto"
       d="M 24,29.473 11.729,40.926 A 4.0004,4.0004 0 0 1 5,38.002 L 5,39 a 4.0004,4.0004 0 0 0 6.729,2.924 L 24,30.471 36.271,41.924 A 4.0004,4.0004 0 0 0 43,39 l 0,-0.916 a 4.0004,4.0004 0 0 1 -6.729,2.842 L 24,29.473 Z"
       id="path5442"
       inkscape:connector-curvature="0" />
    <path
       d="M 8.9395,4.9434 A 4.0004,4.0004 0 0 0 5,9 l 0,1.002 A 4.0004,4.0004 0 0 1 8.9395,5.9453 4.0004,4.0004 0 0 1 13,10.002 L 13,9 A 4.0004,4.0004 0 0 0 8.9395,4.9434 Z m 30,0 A 4.0004,4.0004 0 0 0 35.0005,9 l 0,1.002 a 4.0004,4.0004 0 1 1 8,0 l 0,-1.002 a 4.0004,4.0004 0 0 0 -4.061,-4.0566 z m -15.136,16.063 a 4.0004,4.0004 0 0 0 -2.532,1.07 l -8.271,7.721 0,1.002 8.271,-7.721 a 4.0004,4.0004 0 0 1 5.458,0 l 8.271,7.721 0,-1.002 -8.271,-7.721 a 4.0004,4.0004 0 0 0 -2.926,-1.07 z"
       style="color:#000000;text-indent:0;text-decoration:none;text-decoration-line:none;text-decoration-style:solid;text-decoration-color:#000000;text-transform:none;block-progression:tb;white-space:normal;opacity:0.2;isolation:auto;mix-blend-mode:normal;solid-color:#000000;fill:#ffffff;fill-rule:evenodd;color-rendering:auto;image-rendering:auto;shape-rendering:auto"
       id="path5446"
       inkscape:connector-curvature="0" />
  </g>
</svg>
